X: 40733
T: Toss The Feathers
R: reel
M: 4/4
K: Ddorian
||D3A cAAG|DAAG EDEG|ADDD A2AB|cded cAGE|
DAAA cAAG|FAAG EAAG|ADDD A2AB|cded cAGB||
Addc d2cd|edcd edd2|edAd edAd|edcd edd2|
Addc d2cd|edcd eggg|a2ge fedc|AAAB cAGE||

